src/assets/tokens/WIFI.svg

<svg fill="none" height="513" width="512" xmlns="http://www.w3.org/2000/svg"><linearGradient id="a" gradientUnits="userSpaceOnUse" x1="486" x2="486" y1="479.5" y2="43.5"><stop offset="0" stop-color="#8d54ff"/><stop offset="1" stop-color="#0075ef"/></linearGradient><circle cx="256" cy="256.5" fill="url(#a)" r="256"/><path clip-rule="evenodd" d="M321.054 181.543c-1.38 3.066-5.697 3.165-7.216.166l-36.981-73.016a4 4 0 0 0-3.568-2.193H238.7a4 4 0 0 0-3.569 2.193l-36.981 73.016c-1.519 2.999-5.836 2.9-7.216-.166l-32.723-72.685a4 4 0 0 0-3.647-2.358h-29.883c-2.903 0-4.839 2.995-3.647 5.642l51.87 115.214a4 4 0 0 0 3.647 2.358h34.339a3.998 3.998 0 0 0 3.568-2.192l37.968-74.963c1.48-2.924 5.656-2.924 7.136 0l37.968 74.963a4 4 0 0 0 3.568 2.192h34.339a4 4 0 0 0 3.647-2.358l51.87-115.214c1.192-2.647-.744-5.642-3.647-5.642h-29.882a4 4 0 0 0-3.648 2.358zm58.157 80.778a4 4 0 0 1-4 4H136.782a4 4 0 0 1-4-4v-11.642a4 4 0 0 1 4-4h238.429a4 4 0 0 1 4 4zM273.288 406.5a4 4 0 0 0 3.569-2.193l36.981-73.016c1.519-2.999 5.836-2.9 7.216.166l32.723 72.685a4 4 0 0 0 3.648 2.358h29.882c2.903 0 4.839-2.995 3.647-5.642l-51.87-115.214a4 4 0 0 0-3.647-2.358h-34.339a4 4 0 0 0-3.568 2.192l-37.968 74.963c-1.48 2.924-5.656 2.924-7.136 0l-37.968-74.963a3.998 3.998 0 0 0-3.568-2.192h-34.339a4 4 0 0 0-3.647 2.358l-51.87 115.214c-1.192 2.647.744 5.642 3.647 5.642h29.883a4 4 0 0 0 3.647-2.358l32.723-72.685c1.38-3.066 5.697-3.165 7.216-.166l36.981 73.016a4 4 0 0 0 3.569 2.193z" fill="#fff" fill-rule="evenodd"/></svg>

<svg width="512" height="513" viewBox="0 0 512 513" fill="none" xmlns="http://www.w3.org/2000/svg">
<circle cx="256" cy="256.5" r="256" fill="url(#paint0_linear_60042_499989)"></circle>
<path fill-rule="evenodd" clip-rule="evenodd" d="M321.054 181.543C319.674 184.609 315.357 184.708 313.838 181.709L276.857 108.693C276.176 107.348 274.796 106.5 273.289 106.5H238.7C237.192 106.5 235.812 107.348 235.131 108.693L198.15 181.709C196.631 184.708 192.314 184.609 190.934 181.543L158.211 108.858C157.565 107.423 156.137 106.5 154.564 106.5H124.681C121.778 106.5 119.842 109.495 121.034 112.142L172.904 227.356C173.55 228.791 174.977 229.714 176.551 229.714H210.89C212.398 229.714 213.777 228.867 214.458 227.522L252.426 152.559C253.906 149.635 258.082 149.635 259.562 152.559L297.53 227.522C298.211 228.867 299.591 229.714 301.098 229.714H335.437C337.011 229.714 338.438 228.791 339.084 227.356L390.954 112.142C392.146 109.495 390.21 106.5 387.307 106.5H357.425C355.851 106.5 354.423 107.423 353.777 108.858L321.054 181.543ZM379.211 262.321C379.211 264.531 377.42 266.321 375.211 266.321H136.782C134.573 266.321 132.782 264.531 132.782 262.321V250.679C132.782 248.469 134.573 246.679 136.782 246.679H375.211C377.42 246.679 379.211 248.469 379.211 250.679V262.321ZM273.288 406.5C274.796 406.5 276.176 405.652 276.857 404.307L313.838 331.291C315.357 328.292 319.674 328.391 321.054 331.457L353.777 404.142C354.423 405.577 355.851 406.5 357.425 406.5H387.307C390.21 406.5 392.146 403.505 390.954 400.858L339.084 285.644C338.438 284.209 337.011 283.286 335.437 283.286H301.098C299.591 283.286 298.211 284.133 297.53 285.478L259.562 360.441C258.082 363.365 253.906 363.365 252.426 360.441L214.458 285.478C213.777 284.133 212.398 283.286 210.89 283.286H176.551C174.977 283.286 173.55 284.209 172.904 285.644L121.034 400.858C119.842 403.505 121.778 406.5 124.681 406.5H154.564C156.137 406.5 157.565 405.577 158.211 404.142L190.934 331.457C192.314 328.391 196.631 328.292 198.15 331.291L235.131 404.307C235.812 405.652 237.192 406.5 238.7 406.5H273.288Z" fill="white"></path>
<defs>
<linearGradient id="paint0_linear_60042_499989" x1="486" y1="479.5" x2="486" y2="43.5" gradientUnits="userSpaceOnUse">
<stop stop-color="#8D54FF"></stop>
<stop offset="1" stop-color="#0075EF"></stop>
</linearGradient>
</defs>
</svg>
